icons/nuxt.svg

<?xml version="1.0" encoding="UTF-8"?>
<svg width="512px" height="88px" viewBox="0 0 512 88" version="1.1" xmlns="http://www.w3.org/2000/svg" xmlns:xlink="http://www.w3.org/1999/xlink">
    <!-- Generator: Sketch 59.1 (86144) - https://sketch.com -->
    <title>Group 2</title>
    <desc>Created with Sketch.</desc>
    <g stroke="none" stroke-width="1" fill="none" fill-rule="evenodd">
        <g transform="translate(0.000173, 0.000000)">
            <path d="M203.67382,25.8249452 C204.372606,26.5534404 204.747728,27.5331715 204.714162,28.5420721 L204.714162,80.7794494 C204.743288,81.8979161 204.324739,82.9817372 203.551427,83.7903195 C202.778292,84.6013464 201.697311,85.0461946 200.577275,85.0142506 C199.949524,85.0152902 199.325632,84.9161284 198.729139,84.7205073 C198.182882,84.5521331 197.692316,84.2391865 197.309379,83.8147982 L163.467685,39.7532804 L163.467685,81.2323039 C163.498535,82.2444807 163.109996,83.224462 162.393946,83.9405117 C161.677897,84.6565611 160.697915,85.0451 159.685738,85.0142506 C158.683358,85.0526741 157.712373,84.6607164 157.017569,83.9371914 C156.326327,83.2097112 155.955947,82.2352586 155.989467,81.2323039 L155.989467,28.8847728 C155.964072,27.7695251 156.408146,26.6948652 157.213398,25.9228596 C157.967025,25.149618 159.01037,24.7278402 160.089636,24.7601251 C160.768907,24.7568465 161.442332,24.8857119 162.072404,25.1395438 C162.645712,25.3614309 163.14878,25.7334475 163.528882,26.2166031 L197.223704,70.3760353 L197.223704,28.5420721 C197.192854,27.5298951 197.581393,26.5499137 198.297443,25.8338642 C199.013492,25.1178147 199.993474,24.7292757 201.00565,24.7601251 C202.005357,24.7231969 202.97423,25.1098571 203.67382,25.8249452 Z M273.193104,25.8249452 C273.925041,26.6386569 274.311353,27.7054059 274.270163,28.7990976 L274.270163,61.8452361 C274.340253,66.1165508 273.302954,70.3332141 271.259293,74.0845463 C269.3238,77.623726 266.447748,80.5590782 262.948801,82.5663884 C259.323187,84.6465793 255.207458,85.7198807 251.027712,85.6751734 C246.810513,85.7418381 242.650896,84.6903207 238.971992,82.6275852 C235.457152,80.6287133 232.567164,77.6921126 230.624782,74.145743 C228.581121,70.3944108 227.543822,66.1777475 227.613912,61.9064325 L227.613912,28.8602941 C227.581968,27.7402577 228.026816,26.6592767 228.837843,25.8861417 C229.663524,25.0784877 230.779643,24.6373339 231.934388,24.6622106 C233.023079,24.6629397 234.065083,25.1044667 234.822865,25.8861417 C235.624964,26.645072 236.069424,27.7073329 236.046796,28.8113369 L236.046796,61.8574751 C236.002527,64.6787709 236.716897,67.4601649 238.11524,69.9109414 C240.752358,74.5597283 245.683033,77.4340081 251.027712,77.4381175 C253.710925,77.4572053 256.3524,76.7736289 258.689521,75.4553492 C261.047302,74.1523746 263.009403,72.2367891 264.368561,69.9109414 C265.789396,67.4677614 266.517216,64.6834279 266.473722,61.8574751 L266.473722,28.8113369 C266.433961,27.726495 266.800593,26.6658805 267.501825,25.8371844 C268.22482,25.0278092 269.268831,24.5797356 270.353584,24.6132534 C271.430589,24.5885064 272.465776,25.0302457 273.193104,25.8249452 L273.193104,25.8249452 Z M339.44449,78.8211594 C339.960812,79.5315825 340.231507,80.3909369 340.215567,81.2690216 C340.260852,82.3772141 339.812624,83.4484811 338.991638,84.194217 C338.234158,84.9102113 337.231151,85.3087871 336.188835,85.3079943 C334.849081,85.358784 333.579144,84.7099102 332.835262,83.5944906 L316.104125,61.2577491 L299.752408,83.5577726 C299.015759,84.691505 297.750808,85.3701468 296.398836,85.3569513 C295.4102,85.3788068 294.456979,84.9886512 293.767385,84.2798921 C293.083244,83.6494599 292.692914,82.7623448 292.690325,81.8320299 C292.709238,80.795709 293.0756,79.7957568 293.730667,78.99251 L311.379752,54.9667434 L293.644992,31.1245666 C293.091236,30.4279177 292.78546,29.5665785 292.776001,28.6767045 C292.753373,27.5727005 293.197833,26.5104395 293.999932,25.7515093 C294.757714,24.9698342 295.799717,24.5283072 296.888409,24.5275782 C297.530083,24.5308504 298.162416,24.6816051 298.736545,24.9681934 C299.343224,25.2558247 299.862714,25.6992915 300.24198,26.253321 L316.777288,48.4676696 L333.153487,26.4736286 C333.876338,25.354651 335.091222,24.6493819 336.421382,24.5765355 C337.459377,24.5821084 338.446516,25.0267659 339.138508,25.8004665 C339.890531,26.4723287 340.333129,27.423912 340.362439,28.4319183 C340.333488,29.3162099 340.034508,30.1704423 339.505688,30.8797804 L321.53838,54.7953932 L339.44449,78.8211594 Z M401.558994,25.8249452 C402.368608,26.5632612 402.815616,27.6181963 402.782922,28.7134224 C402.812796,29.7939436 402.365042,30.8327326 401.558994,31.5529426 C400.730297,32.2541741 399.669683,32.6208062 398.584841,32.5810445 L383.261224,32.5810445 L383.261224,80.8896032 C383.282323,81.9933158 382.838111,83.0549841 382.037293,83.8147982 C380.245175,85.4139833 377.538401,85.4139833 375.746287,83.8147982 C374.949258,83.0523753 374.505772,81.9924488 374.522355,80.8896032 L374.522355,32.5810445 L359.235457,32.5810445 C358.147619,32.6223682 357.086061,32.2407331 356.273544,31.5162246 C355.486496,30.7668467 355.062444,29.7134136 355.110808,28.6277472 C355.07616,27.5695366 355.499991,26.5478762 356.273544,25.8249452 C357.086061,25.1004364 358.147619,24.7188014 359.235457,24.7601251 L398.584841,24.7601251 C399.676066,24.7207066 400.740752,25.1018905 401.558994,25.8249452 Z" fill="#2F495E"></path>
            <path d="M420.407529,83.4720975 C417.620669,81.8937724 415.302105,79.604769 413.688148,76.8383911 C413.209655,76.1542838 412.937767,75.3471136 412.904834,74.5129224 C412.904227,73.4333614 413.378741,72.4082362 414.202201,71.7101202 C414.903018,70.9768884 415.857463,70.5390695 416.870371,70.4861891 C418.408055,70.6298532 419.815232,71.4111256 420.75023,72.6403079 C422.663189,75.7881682 426.099704,77.6880291 429.782841,77.6339464 C432.772343,77.7036574 435.661721,76.5549752 437.787352,74.4517257 C439.933526,72.4180553 441.124185,69.5746897 441.067487,66.6185669 L441.067487,28.8847728 C441.054272,27.7700651 441.522683,26.7038658 442.352613,25.9595775 C443.155008,25.169668 444.237537,24.7296161 445.363485,24.7356465 C446.500854,24.6801393 447.609832,25.1015505 448.423312,25.898381 C449.201086,26.6841887 449.621536,27.7552306 449.586048,28.8602941 L449.586048,66.6797637 C449.618232,70.0696435 448.725369,73.4041235 447.003552,76.3243402 C445.297229,79.2345594 442.847106,81.6382149 439.904751,83.2885079 C436.820344,85.0351355 433.327137,85.9306131 429.782841,85.8832416 C426.500076,85.9180184 423.266206,85.0863312 420.407529,83.4720975 Z M479.596836,84.1085416 C476.185819,82.8136258 473.056593,80.8729243 470.380636,78.3927836 C469.277235,77.5461699 468.615887,76.2459702 468.581456,74.8556228 C468.594624,73.7980551 469.036281,72.7910764 469.805388,72.0650603 C470.537898,71.2762571 471.568481,70.8320402 472.644907,70.8411292 C473.551715,70.8286815 474.428429,71.1662172 475.09277,71.7835559 C477.160218,73.7573646 479.564431,75.344976 482.191571,76.471212 C484.834051,77.5219162 487.658771,78.0377715 490.502061,77.9888865 C493.740353,78.0913814 496.934564,77.2171317 499.669305,75.4798279 C501.944841,74.2012218 503.370678,71.8108451 503.414534,69.2010616 C503.457233,66.3973743 502.038569,63.7733054 499.669305,62.2736119 C496.231544,60.2548331 492.459013,58.8701895 488.531533,58.1856822 C482.607707,56.9617511 478.066922,54.9912221 474.872462,52.2373773 C471.678002,49.4835324 470.09913,45.6648673 470.09913,40.793622 C470.031665,37.5945024 470.973814,34.4554403 472.79178,31.8222072 C474.640447,29.2083257 477.184449,27.1646463 480.135365,25.9228596 C483.510483,24.499056 487.145386,23.7945856 490.808043,23.8544161 C494.241074,23.8326004 497.651017,24.4168069 500.880997,25.5801589 C503.729936,26.5410178 506.341736,28.0972502 508.542804,30.1454217 C509.718372,31.0122957 510.445478,32.3587878 510.525572,33.8172149 C510.5255,34.8544589 510.10616,35.8476316 509.362839,36.5710598 C508.651026,37.3672325 507.627842,37.8140383 506.560036,37.7949908 C505.838189,37.8227219 505.133107,37.5730961 504.589507,37.09735 C502.803858,35.4224547 500.691193,34.1348531 498.384179,33.3154033 C495.994625,32.3520797 493.445559,31.8455879 490.869242,31.8222072 C487.642444,31.6562722 484.442504,32.4850948 481.701997,34.1966337 C479.573864,35.6067923 478.294232,37.9897761 478.294232,40.5427159 C478.294232,43.0956559 479.573864,45.4786397 481.701997,46.8887984 C484.837056,48.716974 488.259607,49.9999132 491.823907,50.6829848 C495.609203,51.4279445 499.302575,52.5810977 502.839286,54.1222311 C505.508401,55.3024809 507.790636,57.2114146 509.424035,59.6299208 C511.078862,62.4100528 511.883051,65.6140427 511.737264,68.8461215 C511.785096,72.0232405 510.806414,75.1309809 508.946704,77.7073825 C506.990039,80.3641154 504.35696,82.4477553 501.321612,83.7413625 C497.985082,85.2013673 494.376368,85.935626 490.734608,85.895481 C486.945356,85.9660146 483.173841,85.3609144 479.596836,84.1085416 L479.596836,84.1085416 Z" fill="#01C58E"></path>
            <g>
                <path d="M35.7627194,84.3043708 C35.6755183,84.1501634 35.5978569,83.9907531 35.5301725,83.8270376 C35.0607165,82.7409627 34.9161708,81.542084 35.114036,80.3755519 L7.34304054,80.3755519 L48.6139956,7.74748355 L62.1629124,31.5651816 L66.0917309,24.6132534 L54.2807962,3.80642555 C53.9503348,3.20669935 51.9553272,0 48.5160812,0 C46.9616887,0 44.7341341,0.673162081 42.922716,3.85538281 L1.11323151,77.3646817 C0.758291499,78.0011258 -0.96745127,81.3424577 0.746052185,84.3043708 C1.52936809,85.6506947 3.19391429,87.2540445 6.86570745,87.2540445 L41.8823748,87.2540445 C38.2350603,87.2540445 36.5460353,85.6751734 35.7627194,84.3043708 Z" fill="#01C58E"></path>
                <path d="M116.272904,77.3646817 L81.9171593,16.8412912 C81.5622195,16.2048471 79.5794512,12.9859084 76.1279656,12.9859084 C74.5735731,12.9859084 72.3460185,13.6468312 70.5346007,16.8290519 L66.0917309,24.6132534 L70.0450282,31.5651816 L76.1646836,20.733392 L110.153249,80.3755519 L97.2285367,80.3755519 C97.3939222,81.3615215 97.3011561,82.3735167 96.959272,83.3129866 C96.8872696,83.5204015 96.7971676,83.7210831 96.6900071,83.9127127 L96.5798533,84.1330203 C94.8418713,87.0949334 91.0844029,87.2540445 90.3500444,87.2540445 L110.569385,87.2540445 C111.315983,87.2540445 115.061212,87.0949334 116.799194,84.1330203 C117.570271,82.786696 118.12104,80.5224237 116.272904,77.3646817 Z" fill="#108775"></path>
                <path d="M96.5798533,84.1330203 L96.6900071,83.9127127 C96.7971676,83.7210831 96.8872696,83.5204015 96.959272,83.3129866 C97.3011561,82.3735167 97.3939222,81.3615215 97.2285367,80.3755519 C97.0380503,79.3121785 96.6565553,78.2920939 96.1025204,77.3646817 L70.0695069,31.5651816 L66.0917309,24.6132534 L62.1384337,31.5651816 L36.1176595,77.3646817 C35.6124356,78.3031109 35.2729146,79.3216744 35.114036,80.3755519 C34.9046163,81.5385494 35.0363946,82.7373059 35.4934548,83.8270376 C35.5611389,83.9907532 35.6388003,84.1501635 35.7260017,84.3043708 C36.5093176,85.6506947 38.1738635,87.2540445 41.8456568,87.2540445 L90.3133263,87.2540445 C91.0844029,87.2540445 94.8418713,87.0949334 96.5798533,84.1330203 L96.5798533,84.1330203 Z M66.0917309,38.51711 L89.8849505,80.3755519 L42.3107507,80.3755519 L66.0917309,38.51711 Z" fill="#2F495E"></path>
            </g>
        </g>
    </g>
</svg>

<svg viewBox="0 0 511.75 87.254" xmlns="http://www.w3.org/2000/svg">
  <path d="m203.67 25.825c0.69879 0.7285 1.0739 1.7082 1.0403 2.7171v52.237c0.0291 1.1185-0.38942 2.2023-1.1627 3.0109-0.77314 0.81103-1.8541 1.2559-2.9742 1.2239-0.62775 1e-3 -1.2516-0.09812-1.8481-0.29374-0.54626-0.16837-1.0368-0.48132-1.4198-0.90571l-33.842-44.062v41.479c0.0308 1.0122-0.35768 1.9922-1.0737 2.7082-0.71605 0.71605-1.696 1.1046-2.7082 1.0737-1.0024 0.03842-1.9734-0.35354-2.6682-1.0771-0.69124-0.72748-1.0616-1.7019-1.0281-2.7049v-52.348c-0.0254-1.1152 0.41868-2.1899 1.2239-2.9619 0.75362-0.77324 1.797-1.195 2.8762-1.1627 0.67927-0.0033 1.3527 0.12559 1.9828 0.37942 0.57331 0.22189 1.0764 0.5939 1.4565 1.0771l33.695 44.159v-41.834c-0.0309-1.0122 0.35769-1.9922 1.0737-2.7082 0.71605-0.71605 1.696-1.1046 2.7082-1.0737 0.99971-0.03693 1.9686 0.34973 2.6682 1.0648zm69.519 0c0.73194 0.81371 1.1182 1.8805 1.0771 2.9742v33.046c0.0701 4.2713-0.96721 8.488-3.0109 12.239-1.9355 3.5392-4.8115 6.4745-8.3105 8.4818-3.6256 2.0802-7.7413 3.1535-11.921 3.1088-4.2172 0.06667-8.3768-0.98485-12.056-3.0476-3.5148-1.9989-6.4048-4.9355-8.3472-8.4818-2.0437-3.7513-3.081-7.968-3.0109-12.239v-33.046c-0.0319-1.12 0.41291-2.201 1.2239-2.9742 0.82568-0.80765 1.9418-1.2488 3.0966-1.2239 1.0887 7.29e-4 2.1307 0.44226 2.8885 1.2239 0.8021 0.75893 1.2466 1.8212 1.2239 2.9252v33.046c-0.0443 2.8213 0.6701 5.6027 2.0684 8.0535 2.6371 4.6488 7.5678 7.5231 12.912 7.5272 2.6832 0.01909 5.3247-0.66449 7.6618-1.9828 2.3578-1.303 4.3199-3.2186 5.679-5.5444 1.4208-2.4432 2.1487-5.2275 2.1052-8.0535v-33.046c-0.0398-1.0848 0.32687-2.1455 1.0281-2.9742 0.723-0.80938 1.767-1.2574 2.8518-1.2239 1.077-0.02475 2.1122 0.41699 2.8395 1.2117zm66.251 52.996c0.51632 0.71042 0.78702 1.5698 0.77108 2.4479 0.0453 1.1082-0.40295 2.1795-1.2239 2.9252-0.75748 0.71599-1.7605 1.1146-2.8028 1.1138-1.3398 0.05079-2.6097-0.59808-3.3536-1.7135l-16.731-22.337-16.352 22.3c-0.73665 1.1337-2.0016 1.8124-3.3536 1.7992-0.98864 0.02186-1.9419-0.3683-2.6315-1.0771-0.68414-0.63043-1.0745-1.5175-1.0771-2.4479 0.0189-1.0363 0.38528-2.0363 1.0404-2.8395l17.649-24.026-17.735-23.842c-0.55375-0.69665-0.85953-1.558-0.86899-2.4479-0.0226-1.104 0.42183-2.1663 1.2239-2.9252 0.75778-0.78168 1.7998-1.2232 2.8885-1.2239 0.64167 0.0033 1.274 0.15403 1.8481 0.44062 0.60668 0.28763 1.1262 0.7311 1.5054 1.2851l16.535 22.214 16.376-21.994c0.72285-1.119 1.9377-1.8242 3.2679-1.8971 1.038 0.0056 2.0251 0.45023 2.7171 1.2239 0.75202 0.67186 1.1946 1.6234 1.2239 2.6315-0.029 0.88429-0.32793 1.7385-0.85675 2.4479l-17.967 23.916zm62.114-52.996c0.80962 0.73832 1.2566 1.7933 1.2239 2.8885 0.0299 1.0805-0.41788 2.1193-1.2239 2.8395-0.82869 0.70123-1.8893 1.0679-2.9742 1.0281h-15.324v48.309c0.0211 1.1037-0.42311 2.1654-1.2239 2.9252-1.7921 1.5992-4.4989 1.5992-6.291 0-0.79703-0.76242-1.2405-1.8223-1.2239-2.9252v-48.309h-15.287c-1.0878 0.04132-2.1494-0.34031-2.9619-1.0648-0.78704-0.74938-1.2111-1.8028-1.1627-2.8885-0.0346-1.0582 0.38918-2.0799 1.1627-2.8028 0.81252-0.72451 1.8741-1.1061 2.9619-1.0648h39.349c1.0912-0.03942 2.1559 0.34176 2.9742 1.0648z" fill="#2f495e"/>
  <path d="m420.41 83.472c-2.7869-1.5783-5.1054-3.8673-6.7194-6.6337-0.4785-0.68411-0.75038-1.4913-0.78332-2.3255-6e-4 -1.0796 0.47391-2.1047 1.2974-2.8028 0.70082-0.73323 1.6553-1.1711 2.6682-1.2239 1.5377 0.14366 2.9449 0.92494 3.8799 2.1541 1.913 3.1479 5.3495 5.0477 9.0326 4.9936 2.9895 0.06971 5.8789-1.079 8.0045-3.1822 2.1462-2.0337 3.3368-4.877 3.2801-7.8332v-37.734c-0.0132-1.1147 0.45519-2.1809 1.2851-2.9252 0.8024-0.78991 1.8849-1.23 3.0109-1.2239 1.1374-0.05551 2.2463 0.3659 3.0598 1.1627 0.77778 0.78581 1.1982 1.8568 1.1627 2.9619v37.819c0.0322 3.3899-0.86068 6.7244-2.5825 9.6446-1.7063 2.9102-4.1564 5.3139-7.0988 6.9642-3.0844 1.7466-6.5776 2.6421-10.122 2.5947-3.2828 0.03478-6.5166-0.79691-9.3753-2.4111zm59.189 0.63644c-3.411-1.2949-6.5402-3.2356-9.2162-5.7158-1.1034-0.84661-1.7648-2.1468-1.7992-3.5372 0.0132-1.0576 0.45482-2.0645 1.2239-2.7906 0.73251-0.7888 1.7631-1.233 2.8395-1.2239 0.9068-0.01245 1.7835 0.32509 2.4479 0.94243 2.0674 1.9738 4.4717 3.5614 7.0988 4.6877 2.6425 1.0507 5.4672 1.5666 8.3105 1.5177 3.2383 0.10249 6.4325-0.77176 9.1672-2.5091 2.2755-1.2786 3.7014-3.669 3.7452-6.2788 0.0427-2.8037-1.376-5.4278-3.7452-6.9274-3.4378-2.0188-7.2103-3.4034-11.138-4.0879-5.9238-1.2239-10.465-3.1945-13.659-5.9483s-4.7733-6.5725-4.7733-11.444c-0.0675-3.1991 0.87468-6.3382 2.6926-8.9714 1.8487-2.6139 4.3927-4.6576 7.3436-5.8993 3.3751-1.4238 7.01-2.1283 10.673-2.0684 3.433-0.02182 6.843 0.56239 10.073 1.7257 2.8489 0.96086 5.4607 2.5171 7.6618 4.5653 1.1756 0.86687 1.9027 2.2134 1.9828 3.6718-7e-5 1.0372-0.41941 2.0304-1.1627 2.7538-0.71181 0.79617-1.735 1.243-2.8028 1.2239-0.72185 0.02773-1.4269-0.2219-1.9705-0.69764-1.7856-1.6749-3.8983-2.9625-6.2053-3.7819-2.3896-0.96332-4.9386-1.4698-7.5149-1.4932-3.2268-0.16594-6.4267 0.66289-9.1672 2.3744-2.1281 1.4102-3.4078 3.7931-3.4078 6.3461s1.2796 4.9359 3.4078 6.3461c3.1351 1.8282 6.5576 3.1111 10.122 3.7942 3.7853 0.74496 7.4787 1.8981 11.015 3.4392 2.6691 1.1802 4.9514 3.0892 6.5847 5.5077 1.6548 2.7801 2.459 5.9841 2.3132 9.2162 0.0478 3.1771-0.93085 6.2849-2.7906 8.8613-1.9567 2.6567-4.5897 4.7404-7.6251 6.034-3.3365 1.46-6.9452 2.1943-10.587 2.1541-3.7892 0.07053-7.5608-0.53457-11.138-1.7869z" fill="#01c58e"/>
  <path d="m35.763 84.304c-0.0872-0.15421-0.16486-0.31362-0.23255-0.47733-0.46946-1.0861-0.614-2.285-0.41614-3.4515h-27.771l41.271-72.628 13.549 23.818 3.9288-6.9519-11.811-20.807c-0.33046-0.59973-2.3255-3.8064-5.7647-3.8064-1.5544 0-3.7819 0.67316-5.5934 3.8554l-41.809 73.509c-0.35494 0.63644-2.0807 3.9778-0.36718 6.9397 0.78332 1.3463 2.4479 2.9497 6.1197 2.9497h35.017c-3.6473 0-5.3363-1.5789-6.1197-2.9497z" fill="#01c58e"/>
  <path d="m116.27 77.365-34.356-60.523c-0.35494-0.63644-2.3377-3.8554-5.7892-3.8554-1.5544 0-3.7819 0.66092-5.5934 3.8431l-4.4429 7.7842 3.9533 6.9519 6.1197-10.832 33.989 59.642h-12.925c0.16538 0.98597 0.07262 1.998-0.26926 2.9374-0.072 0.20742-0.1621 0.4081-0.26926 0.59973l-0.11015 0.22031c-1.738 2.9619-5.4954 3.121-6.2298 3.121h20.219c0.7466 0 4.4918-0.15911 6.2298-3.121 0.77108-1.3463 1.3218-3.6106-0.52629-6.7683z" fill="#108775"/>
  <path d="m96.58 84.133 0.11015-0.22031c0.10716-0.19163 0.19726-0.39231 0.26926-0.59973 0.34188-0.93947 0.43465-1.9515 0.26926-2.9374-0.19049-1.0634-0.57198-2.0835-1.126-3.0109l-26.033-45.8-3.9778-6.9519-3.9533 6.9519-26.021 45.8c-0.50522 0.93843-0.84474 1.957-1.0036 3.0109-0.20942 1.163-0.07764 2.3618 0.37942 3.4515 0.06768 0.16372 0.14534 0.32313 0.23255 0.47733 0.78332 1.3463 2.4479 2.9497 6.1197 2.9497h48.468c0.77108 0 4.5285-0.15911 6.2665-3.121zm-30.488-45.616 23.793 41.858h-47.574z" fill="#2f495e"/>
</svg>
